src/assets/mabet-logo.svg

<svg width="43" height="32" viewBox="0 0 43 32" fill="none" xmlns="http://www.w3.org/2000/svg">
<path d="M43 1.01402L40.7196 0.561724C39.8096 0.379346 37.8422 0.620083 36.2236 2.66271C35.6355 3.40864 35.5132 3.41958 33.5889 2.88704C32.5972 2.59928 31.5918 2.36249 30.5766 2.17759C26.2928 1.42255 15.4879 1.50462 10.7203 2.62077C8.61798 3.11136 7.7997 2.47304 6.66131 1.58669C5.75311 0.87906 4.62191 0 2.85408 0H0.00898986L1.95307 2.11741C1.96746 2.13382 3.5087 3.8354 3.89895 5.8525L2.3667 11.8929C2.05562 13.0847 1.87766 14.3082 1.83618 15.5404V16.4596C1.88154 17.692 2.0625 18.9155 2.3757 20.1071C3.15801 23.1875 3.60581 24.9584 3.93852 25.9761C3.60401 28.0661 1.97645 29.8644 1.96027 29.8808L0 32H2.85228C4.62011 32 5.74952 31.1209 6.65952 30.4133C7.79791 29.527 8.61798 28.8868 10.7185 29.3792C15.4861 30.4936 26.2928 30.5775 30.5766 29.8224C31.5912 29.6373 32.596 29.4005 33.5871 29.113C35.5114 28.5804 35.6337 28.5914 36.2218 29.3355C37.8404 31.3799 39.8078 31.6207 40.7178 31.4365L42.9784 30.9842L41.3598 29.3172C40.7784 28.6736 40.287 27.9519 39.8995 27.1725L39.887 27.1524C39.6045 26.7101 39.4819 26.1823 39.5399 25.6587C39.878 24.5189 40.6189 22.0677 40.734 21.6865C41.8131 18.1721 41.8436 13.9975 40.8023 10.5177L40.6225 9.93047C40.0452 7.99909 39.6855 6.80087 39.4104 6.05312C39.8144 4.80226 40.4779 3.65366 41.3563 2.6846L43 1.01402Z" fill="#47C0B5"/>
<path d="M29.0947 12.6515H23.0826V18.7484H29.0947V12.6515Z" fill="white"/>
<path d="M20.8292 12.6515H14.8171V18.7484H20.8292V12.6515Z" fill="white"/>
</svg>

<svg xmlns="http://www.w3.org/2000/svg" width="43" height="32" fill="none"><path fill="#47C0B5" d="M43 1.014 40.72.562c-.91-.183-2.878.058-4.496 2.1-.588.747-.71.758-2.635.225a30 30 0 0 0-3.012-.71c-4.284-.754-15.09-.672-19.857.444-2.102.49-2.92-.148-4.059-1.034C5.753.879 4.621 0 2.854 0H.01l1.944 2.117c.014.017 1.556 1.718 1.946 3.736l-1.532 6.04a16.7 16.7 0 0 0-.53 3.647v.92c.045 1.232.226 2.456.539 3.647.782 3.08 1.23 4.851 1.563 5.87-.335 2.09-1.963 3.887-1.979 3.904L0 32h2.852c1.768 0 2.898-.88 3.808-1.587 1.138-.886 1.958-1.526 4.059-1.034 4.767 1.115 15.574 1.198 19.858.443a30 30 0 0 0 3.01-.709c1.924-.533 2.047-.522 2.635.223 1.618 2.044 3.586 2.285 4.496 2.1l2.26-.452-1.618-1.667a9.5 9.5 0 0 1-1.46-2.145l-.013-.02a2.3 2.3 0 0 1-.347-1.493c.338-1.14 1.079-3.591 1.194-3.972 1.08-3.515 1.11-7.69.068-11.17l-.18-.587C40.046 8 39.686 6.8 39.41 6.053a9.25 9.25 0 0 1 1.946-3.368z"/><path fill="#fff" d="M29.095 12.652h-6.012v6.096h6.012zM20.83 12.652h-6.013v6.096h6.012z"/></svg>
